X:36
T:Faint an Wearily
S:John Moore's Book 2
Z:Transcribed by Taz Tarry 04/2021
%%VWML: Moore1-4494-p31-0
F:http://www.vwml.org/record/Moore2/4494/p31
M:2/4
L:1/8
K:D
d3 e/d/|cA Bc|d2 f2|ag (ec)|d3 e/d/|cA Bc|d2 f2|!fine!d2 z2|
d3 e/d/|cA Bc|d2 f2|ag ec|d3 (e/d/)|cA Bc|d2 f2|!fine!d2 z2|
ag e z|af d z|ef gf|fg d z|(ag) e>e|(af) d z|ef gf|f2 e2|
d3 e/d/|cA Bc|d2 f2|ag (ec)|d3 e/d/|cA Bc|d2 f2|d2 z2||

